src/images/chat.svg

<svg width="45" height="35" viewBox="0 0 45 35" fill="none" xmlns="http://www.w3.org/2000/svg">
<rect x="0.486572" width="43.6558" height="35" rx="4" fill="#7FD1FF" fill-opacity="0.66"/>
<path d="M20.6515 9.75H25.2249C27.6508 9.75 29.9774 10.5226 31.6928 11.8979C33.4082 13.2732 34.3719 15.1384 34.3719 17.0833C34.3719 19.0283 33.4082 20.8935 31.6928 22.2688C29.9774 23.6441 27.6508 24.4167 25.2249 24.4167V27.625C19.5081 25.7917 11.5045 23.0417 11.5045 17.0833C11.5045 15.1384 12.4682 13.2732 14.1836 11.8979C15.899 10.5226 18.2255 9.75 20.6515 9.75ZM22.9382 22.5833H25.2249C26.1258 22.5833 27.0179 22.4411 27.8502 22.1647C28.6825 21.8883 29.4388 21.4831 30.0758 20.9724C30.7128 20.4617 31.2182 19.8554 31.5629 19.1881C31.9077 18.5208 32.0851 17.8056 32.0851 17.0833C32.0851 16.3611 31.9077 15.6459 31.5629 14.9786C31.2182 14.3113 30.7128 13.705 30.0758 13.1942C29.4388 12.6835 28.6825 12.2784 27.8502 12.002C27.0179 11.7256 26.1258 11.5833 25.2249 11.5833H20.6515C18.832 11.5833 17.0871 12.1628 15.8006 13.1942C14.514 14.2257 13.7913 15.6246 13.7913 17.0833C13.7913 20.3925 16.6062 22.5522 22.9382 24.8567V22.5833Z" fill="#2681ED"/>
</svg>

<svg xmlns="http://www.w3.org/2000/svg" width="45" height="35" fill="none"><rect width="43.656" height="35" x=".487" fill="#7FD1FF" fill-opacity=".66" rx="4"/><path fill="#2681ED" d="M20.651 9.75h4.574c2.426 0 4.752.773 6.468 2.148 1.715 1.375 2.679 3.24 2.679 5.185 0 1.945-.964 3.81-2.68 5.186-1.715 1.375-4.041 2.148-6.467 2.148v3.208c-5.717-1.833-13.72-4.583-13.72-10.542 0-1.945.963-3.81 2.679-5.185 1.715-1.375 4.042-2.148 6.467-2.148Zm2.287 12.833h2.287c.9 0 1.793-.142 2.625-.418a7.166 7.166 0 0 0 2.226-1.193 5.595 5.595 0 0 0 1.487-1.784 4.57 4.57 0 0 0 .522-2.105 4.57 4.57 0 0 0-.522-2.104 5.597 5.597 0 0 0-1.487-1.785 7.166 7.166 0 0 0-2.226-1.192 8.355 8.355 0 0 0-2.625-.419H20.65c-1.819 0-3.564.58-4.85 1.611-1.287 1.032-2.01 2.43-2.01 3.89 0 3.308 2.815 5.468 9.147 7.773v-2.274Z"/></svg>
